X:328
T:Sean Frank
Z: id:dc-reel-306
M:C
L:1/8
K:D Dorian
E|F2FE F2DE|F2AF GECE|Dddc defe|d2cd ABcA|!
d3c A3B|cBcG ECCE|Dddc A3B|cAGE EDD:|!
E|FAdA FDD2|EGcG ECC2|FAdA FDDF|EcCE D3:|!

